icons/notification-off-line.svg

<svg xmlns="http://www.w3.org/2000/svg" width="24" height="24" fill="none"><g clip-path="url(#a)"><g><path fill="#121212" d="M18.5856 20.0001H3.99958C3.90672 20.0001 3.8157 19.9742 3.73671 19.9254C3.65772 19.8766 3.59389 19.8067 3.55236 19.7237C3.51084 19.6406 3.49326 19.5476 3.5016 19.4552C3.50994 19.3627 3.54386 19.2744 3.59958 19.2001L3.99958 18.6671V10.0001C3.99958 8.67007 4.32358 7.41607 4.89858 6.31307L1.39258 2.80807L2.80758 1.39307L22.6066 21.1931L21.1916 22.6071L18.5856 20.0001ZM6.40758 7.82207C6.1372 8.51634 5.99882 9.255 5.99958 10.0001V18.0001H16.5856L6.40758 7.82207ZM19.9996 15.7861L17.9996 13.7861V10.0001C17.9998 8.94773 17.7232 7.91386 17.1976 7.00218C16.672 6.09051 15.9158 5.33311 15.005 4.80599C14.0943 4.27886 13.0608 4.00055 12.0085 3.99899C10.9562 3.99742 9.92194 4.27265 9.00958 4.79707L7.55958 3.34507C8.76431 2.54128 10.1646 2.07961 11.6112 2.0093C13.0577 1.93899 14.4963 2.26268 15.7733 2.94584C17.0503 3.629 18.1179 4.646 18.8622 5.88835C19.6065 7.1307 19.9996 8.55181 19.9996 10.0001V15.7861ZM9.49958 21.0001H14.4996C14.4996 21.6631 14.2362 22.299 13.7673 22.7678C13.2985 23.2367 12.6626 23.5001 11.9996 23.5001C11.3365 23.5001 10.7007 23.2367 10.2318 22.7678C9.76297 22.299 9.49958 21.6631 9.49958 21.0001Z"/></g></g><defs><clipPath id="a"><rect width="24" height="24" fill="white"/></clipPath></defs></svg>

<svg width="24" height="24" fill="none" xmlns="http://www.w3.org/2000/svg"><g clip-path="url(#a)"><path d="M18.586 20H4a.5.5 0 0 1-.4-.8l.4-.533V10c0-1.33.324-2.584.899-3.687L1.393 2.808l1.415-1.415 19.799 19.8-1.415 1.414L18.586 20ZM6.408 7.822A5.985 5.985 0 0 0 6 10v8h10.586L6.408 7.822ZM20 15.786l-2-2V10a6 6 0 0 0-8.99-5.203L7.56 3.345A8 8 0 0 1 20 10v5.786ZM9.5 21h5a2.5 2.5 0 1 1-5 0Z" /></g><defs><clipPath id="a"><path fill="#fff" d="M0 0h24v24H0z"/></clipPath></defs></svg>
